img/decorate-house.svg

<svg width="58" height="97" viewBox="0 0 58 97" fill="none" xmlns="http://www.w3.org/2000/svg">
<path d="M52.9075 60.9783C51.4578 60.5893 49.9825 60.2703 48.5004 59.9822C48.8939 57.0383 49.1121 54.0688 49.2266 51.1626C50.7747 51.4439 52.32 51.7306 53.8654 52.0348L54.1012 52.0591C53.7509 55.042 53.3507 58.0142 52.9075 60.9783ZM51.4173 70.0349L51.319 69.9959C49.7103 69.7226 48.0868 69.5288 46.4579 69.3699C47.1572 67.1866 47.6934 64.9305 48.0949 62.6394C49.5311 63.0985 50.9741 63.5279 52.4319 63.8805C52.1058 65.9333 51.7865 67.9888 51.4173 70.0349ZM46.3596 93.0856C40.4597 91.8081 34.5276 90.7313 28.5415 89.9344C25.3511 89.509 22.1486 89.1725 18.942 88.8938C19.2896 83.6777 19.8865 76.9081 25.7553 75.1999C33.7098 72.8846 33.3743 84.2148 33.1372 88.7848C33.0536 90.4176 35.2996 90.4943 35.8116 89.1469C38.23 82.7839 35.0692 71.1145 26.6392 71.9302C18.1997 72.75 16.3431 81.6949 16.8995 88.708C15.8486 88.63 14.4461 88.6838 12.9533 88.7363C10.1212 88.8373 6.96722 88.9382 5.27366 88.1467C3.96139 88.5519 3.50467 88.0727 3.90347 86.7091C3.81185 85.8045 3.80512 84.8986 3.87788 83.9926C3.89674 82.2535 4.01126 80.5103 4.07728 78.7725C4.22548 74.858 4.37773 70.9436 4.52324 67.0277C4.53806 66.6064 4.55556 66.1837 4.57172 65.761C7.88878 66.6158 13.8223 68.4425 15.6694 65.0947C16.9022 62.8602 17.0181 59.5326 17.2148 56.6816C17.9127 56.2858 17.9693 55.2372 17.3913 54.7243L17.4209 54.4511C17.7888 51.7347 18.267 49.0142 18.5338 46.2816C26.0652 47.4096 33.5966 48.5161 41.1105 49.7586L41.0229 49.9161C38.9831 56.4043 38.3876 63.5333 37.9848 70.2907C37.9336 71.1428 38.7123 71.7175 39.4762 71.7808C43.2837 72.0958 47.1464 72.5454 50.9687 72.5292C49.6686 79.4267 48.1326 86.2783 46.3596 93.0856ZM4.89911 56.5739C5.9244 56.6183 6.94971 56.6574 7.975 56.6951C7.96557 59.3267 8.10568 61.9637 8.43577 64.6101C7.14236 64.4997 5.79237 64.2871 4.63235 64.2184C4.73339 61.6716 4.82635 59.1234 4.89911 56.5739ZM8.99357 44.7995C8.46812 48.0571 8.1259 51.3133 8.01138 54.5776C6.99013 54.614 5.97023 54.6544 4.95167 54.6974C5.02577 51.1787 5.02307 47.66 4.84118 44.1453C6.22351 44.3742 7.60989 44.5801 8.99357 44.7995ZM14.2238 56.8391C14.1928 57.0854 14.1658 57.3331 14.1349 57.5781C13.8371 59.9041 14.2763 63.7298 11.5723 64.4822C11.1479 64.5994 10.6656 64.6519 10.1576 64.6694C10.0956 62.0256 10.1078 59.394 10.2102 56.7704C11.5494 56.8095 12.8873 56.8296 14.2238 56.8391ZM10.3206 54.5009C10.5106 51.3847 10.8394 48.2779 11.3634 45.1711C12.7902 45.3932 14.217 45.6287 15.6452 45.8441C15.144 48.679 14.8341 51.5677 14.5094 54.4336C13.115 54.4417 11.7178 54.4619 10.3206 54.5009ZM41.0836 68.9257C41.2951 66.103 41.6265 63.299 41.9741 60.4978C43.025 60.8882 44.084 61.2718 45.1456 61.6473C44.8991 64.1632 44.6781 66.6804 44.5421 69.199C43.3888 69.1034 42.2355 69.0132 41.0836 68.9257ZM45.3599 59.4155C44.2955 59.2392 43.2298 59.0709 42.1668 58.9121C42.5306 56.0153 42.8984 53.1184 43.1624 50.2055L43.1517 50.0938C44.1743 50.2674 45.1955 50.4491 46.2168 50.6282L46.1346 50.9283C45.9352 53.7592 45.6455 56.5874 45.3599 59.4155ZM33.7125 6.55409C40.709 20.1699 47.2151 34.0199 53.1769 48.1231C41.7195 45.8401 30.0721 43.79 18.3815 42.6579C17.9342 42.215 17.1542 42.1383 16.6355 42.4963C12.9102 42.1665 9.18354 41.9229 5.45691 41.8112C16.7985 32.0708 25.8483 19.2505 33.7125 6.55409ZM57.8318 48.3088C51.1209 32.2525 43.7741 16.4964 35.7509 1.05123C34.9843 -0.425434 32.8286 -0.273326 32.023 1.05123C23.2413 15.4882 12.3807 28.1079 2.4888 41.7183C1.37998 41.7143 1.07145 43.518 2.22609 43.7159L2.30556 43.728C1.12397 52.7321 1.04585 61.8775 0.709026 70.9435C0.546002 75.2941 0.384312 79.642 0.222636 83.9926C0.157965 85.7614 -0.535879 89.1052 0.911121 90.6747C1.7963 91.6358 2.83776 91.5402 3.97758 91.7664C6.44852 92.2577 9.18353 92.2456 11.8822 92.2348C13.6067 92.2281 15.3164 92.2214 16.9332 92.3439C27.135 93.126 37.2168 94.7238 47.1976 96.9516C48.1434 97.1629 49.1606 96.6716 49.4207 95.6903C53.3292 80.9612 56.114 66.0249 57.8211 50.8839C57.8615 50.538 57.8049 50.2512 57.6917 50.0103C58.0124 49.5795 58.1215 49.0021 57.8318 48.3088Z" fill="#FFD787"/>
</svg>

<svg width="58" height="97" viewBox="0 0 58 97" fill="none" xmlns="http://www.w3.org/2000/svg"><path d="M52.907 60.978a64.484 64.484 0 00-4.407-.996c.394-2.944.612-5.913.727-8.82 1.548.282 3.093.569 4.638.873l.236.024a285.43 285.43 0 01-1.194 8.92zm-1.49 9.057l-.098-.04a69.025 69.025 0 00-4.861-.625c.7-2.183 1.235-4.44 1.637-6.73 1.436.459 2.88.888 4.337 1.24-.326 2.053-.646 4.109-1.015 6.155zm-5.057 23.05c-5.9-1.277-11.832-2.354-17.819-3.15-3.19-.426-6.392-.763-9.599-1.041.348-5.216.945-11.986 6.813-13.694 7.955-2.315 7.62 9.015 7.382 13.585-.083 1.633 2.163 1.71 2.675.362 2.418-6.363-.743-18.032-9.173-17.217-8.44.82-10.296 9.765-9.74 16.778-1.05-.078-2.453-.024-3.946.028-2.832.101-5.986.202-7.68-.59-1.312.406-1.768-.073-1.37-1.437a14.996 14.996 0 01-.025-2.716c.019-1.74.133-3.483.2-5.22.147-3.915.3-7.83.445-11.745.015-.422.033-.844.049-1.267 3.317.855 9.25 2.681 11.097-.666 1.233-2.235 1.35-5.562 1.546-8.413.698-.396.754-1.445.176-1.958l.03-.273c.368-2.716.846-5.437 1.113-8.17 7.531 1.129 15.063 2.235 22.577 3.478l-.088.157c-2.04 6.488-2.635 13.617-3.038 20.375-.051.852.727 1.427 1.491 1.49 3.808.315 7.67.764 11.493.748a307.537 307.537 0 01-4.61 20.557zM4.9 56.575a471.8 471.8 0 003.075.121c-.01 2.632.13 5.269.46 7.915-1.293-.11-2.643-.323-3.803-.392.101-2.546.194-5.095.267-7.644zM8.993 44.8a78.681 78.681 0 00-.983 9.778c-1.02.036-2.04.076-3.06.12.075-3.52.072-7.038-.11-10.553 1.383.23 2.769.435 4.153.654zm5.23 12.04c-.031.245-.058.493-.09.738-.297 2.326.142 6.152-2.562 6.904-.424.117-.906.17-1.414.187a126.76 126.76 0 01.052-7.899c1.34.04 2.677.06 4.014.07zM10.32 54.5c.19-3.115.518-6.222 1.042-9.329 1.427.222 2.854.458 4.282.673-.501 2.835-.81 5.724-1.136 8.59-1.394.008-2.791.028-4.188.067zm30.763 14.426c.211-2.823.542-5.627.89-8.428 1.051.39 2.11.774 3.172 1.15-.247 2.515-.468 5.032-.604 7.551a503.73 503.73 0 00-3.458-.273zm4.276-9.51a204.07 204.07 0 00-3.193-.504c.364-2.897.731-5.794.995-8.706l-.01-.112c1.022.173 2.044.355 3.065.534l-.082.3c-.2 2.831-.49 5.66-.775 8.488zM33.712 6.553C40.71 20.17 47.215 34.02 53.177 48.124c-11.458-2.284-23.105-4.334-34.795-5.466-.448-.443-1.228-.52-1.747-.162a192.03 192.03 0 00-11.178-.685c11.341-9.74 20.391-22.56 28.255-35.257zm24.12 41.755A626.78 626.78 0 0035.75 1.05c-.767-1.476-2.922-1.324-3.728 0C23.24 15.487 12.38 28.107 2.488 41.717c-1.109-.004-1.418 1.8-.263 1.998l.08.012c-1.182 9.004-1.26 18.15-1.597 27.215-.163 4.351-.325 8.699-.486 13.05-.065 1.768-.759 5.112.688 6.682.885.96 1.927.865 3.067 1.091 2.47.492 5.206.48 7.904.469 1.725-.007 3.434-.014 5.051.109 10.202.782 20.284 2.38 30.265 4.608.945.21 1.963-.28 2.223-1.262a309.728 309.728 0 008.4-44.806 1.578 1.578 0 00-.13-.874c.321-.43.43-1.008.14-1.701z" fill="#FFD787"/></svg>
